dist/svg/calendar.svg

<!-- Generated by Trend Micro Style Portal -->
<svg version="1.1" xmlns="http://www.w3.org/2000/svg" width="16" height="16" viewBox="0 0 16 16">
  <title>calendar</title>
  <path fill="rgb(34,34,34)" d="M15 1h-2v-1h-3v1h-4v-1h-3v1h-2c-0.552 0-1 0.448-1 1v0 13c0 0.552 0.448 1 1 1v0h14c0.552 0 1-0.448 1-1v0-13c0-0.552-0.448-1-1-1v0zM15 4v3h-4v-3h4zM11 1h1v2h-1v-2zM10 4v3h-4v-3h4zM10 8v3h-4v-3h4zM4 1h1v2h-1v-2zM5 4v3h-4v-3h4zM1 8h4v3h-4v-3zM1 15v-3h4v3h-4zM6 15v-3h4v3h-4zM15 15h-4v-3h4v3zM11 11v-3h4v3h-4z"></path>
</svg>

<svg width="16" height="16" viewBox="0 0 16 16" fill="rgb(34, 34, 34)" xmlns="http://www.w3.org/2000/svg"><title>calendar</title><path d="M15 1H13V0H10V1H6V0H3V1H1C0.448 1 0 1.448 0 2V15C0 15.552 0.448 16 1 16H15C15.552 16 16 15.552 16 15V2C16 1.448 15.552 1 15 1ZM15 4V7H11V4H15ZM11 1H12V3H11V1ZM10 4V7H6V4H10ZM10 8V11H6V8H10ZM4 1H5V3H4V1ZM5 4V7H1V4H5ZM1 8H5V11H1V8ZM1 15V12H5V15H1ZM6 15V12H10V15H6ZM15 15H11V12H15V15ZM11 11V8H15V11H11Z" fill="rgb(34, 34, 34)" fill-opacity="1.00"/></svg>
